build/category/DeliveryOutline.svg

<svg xmlns="http://www.w3.org/2000/svg" fill="none" viewBox="0 0 24 24" focusable="false"><path d="M0 0H24V24H0z"/><path fill="#74767B" fill-rule="evenodd" d="M5.00448 6.63718C5.00448 4.62134 6.63864 2.98718 8.65448 2.98718L15.3463 2.98718C17.3622 2.98718 18.9963 4.62134 18.9963 6.63718L18.9963 11C18.9963 11.359 18.7053 11.65 18.3463 11.65C17.9874 11.65 17.6963 11.359 17.6963 11L17.6963 6.63718C17.6963 5.33931 16.6442 4.28718 15.3463 4.28718L13.3004 4.28718L13.3004 5.66254C13.3004 6.38051 12.7183 6.96254 12.0004 6.96254C11.2824 6.96254 10.7004 6.38051 10.7004 5.66254L10.7004 4.28718L8.65448 4.28718C7.35661 4.28718 6.30448 5.33931 6.30448 6.63718L6.30448 7.49998C6.30448 7.85896 6.01346 8.14998 5.65448 8.14998C5.29549 8.14998 5.00448 7.85896 5.00448 7.49998L5.00448 6.63718ZM10.0206 9.33849C10.6272 8.9691 11.4172 9.14403 11.8112 9.73498C12.1884 10.3007 12.0758 11.0602 11.5507 11.4922L9.7226 12.9961C9.26525 13.3724 9.10051 13.9994 9.31382 14.5518C9.48457 14.994 9.87124 15.317 10.3368 15.4062L11.774 15.6816C12.3324 15.7886 12.9081 15.7637 13.4552 15.6088L18.6661 14.1335C19.224 13.9756 19.8063 14.2899 19.9803 14.8429C20.1435 15.3613 19.8928 15.9197 19.3971 16.1423L12.6796 19.1591C12.2381 19.3574 11.7462 19.4145 11.271 19.3227L5.69708 18.2456C4.7204 18.0569 3.96834 17.2737 3.81941 16.2902L3.61324 14.9286C3.47144 13.9922 3.9056 13.0622 4.7145 12.5696L10.0206 9.33849ZM12.8929 9.01387C12.1122 7.84279 10.5466 7.49613 9.34447 8.22816L4.03837 11.4593C2.78199 12.2244 2.10765 13.6688 2.32789 15.1232L2.53406 16.4848C2.76538 18.0124 3.93347 19.2289 5.45045 19.522L11.0244 20.5991C11.7624 20.7417 12.5265 20.653 13.2122 20.345L19.9297 17.3282C21.0267 16.8355 21.5814 15.5998 21.2204 14.4527C20.8352 13.2288 19.5465 12.5332 18.312 12.8827L13.1011 14.358C12.7489 14.4577 12.3782 14.4737 12.0187 14.4048L10.5815 14.1294C10.5565 14.1246 10.5357 14.1073 10.5266 14.0836C10.5151 14.0539 10.524 14.0202 10.5485 14.0001L12.3766 12.4961C13.4172 11.6401 13.6403 10.135 12.8929 9.01387Z"/></svg>

<svg xmlns="http://www.w3.org/2000/svg" fill="none" viewBox="0 0 24 24" focusable="false"><path fill="#74767B" fill-rule="evenodd" d="M5 6.63c0-2.01 1.63-3.65 3.65-3.65h6.69c2.02 0 3.65 1.64 3.65 3.65V11c0 .35-.29.65-.65.65s-.65-.3-.65-.65V6.63c0-1.3-1.05-2.35-2.35-2.35H13.3v1.38c0 .72-.59 1.3-1.3 1.3-.72 0-1.3-.58-1.3-1.3V4.28H8.65c-1.3 0-2.35 1.05-2.35 2.35v.86c0 .36-.29.65-.65.65S5 7.85 5 7.49zm5.02 2.7c.6-.37 1.39-.19 1.79.4.37.57.26 1.33-.26 1.76l-1.83 1.5c-.46.38-.62 1-.41 1.56.17.44.56.76 1.02.85l1.44.28c.56.1 1.13.08 1.68-.08l5.21-1.47c.56-.16 1.14.15 1.32.71.16.52-.09 1.07-.59 1.3l-6.72 3.01c-.44.2-.93.26-1.4.17l-5.58-1.08c-.97-.19-1.73-.97-1.88-1.95l-.2-1.37c-.14-.93.29-1.86 1.1-2.36zm2.87-.32a2.63 2.63 0 0 0-3.55-.79l-5.31 3.23a3.67 3.67 0 0 0-1.71 3.67l.21 1.36c.23 1.53 1.4 2.74 2.92 3.04l5.57 1.07c.74.15 1.5.06 2.19-.25l6.71-3.02a2.37 2.37 0 0 0 1.3-2.87 2.37 2.37 0 0 0-2.91-1.57l-5.21 1.47c-.36.1-.73.12-1.09.05l-1.43-.28c-.03 0-.05-.02-.06-.04-.01-.03 0-.06.02-.08l1.83-1.51a2.62 2.62 0 0 0 .52-3.48"/></svg>
